app/assets/images/icons/active/video.svg

<?xml version="1.0" encoding="UTF-8" standalone="no"?>
<svg width="32px" height="232px" viewBox="0 0 32 232" version="1.1" xmlns="http://www.w3.org/2000/svg" xmlns:xlink="http://www.w3.org/1999/xlink" xmlns:sketch="http://www.bohemiancoding.com/sketch/ns">
    <title>video</title>
    <description>Created with Sketch (http://www.bohemiancoding.com/sketch)</description>
    <defs></defs>
    <g id="Categories" stroke="none" stroke-width="1" fill="none" fill-rule="evenodd" sketch:type="MSPage">
        <path d="M30.5,129.752 L30.5,128.525 C30.5,127.125 29.3498096,125.989 27.9310724,125.989 L4.07095433,125.989 C2.64917706,125.989 1.5,127.125 1.5,128.525 L1.5,129.752 L4.7732292,129.752 L4.7732292,132.393 L1.5,132.393 L1.5,135.643 L4.7732292,135.643 L4.7732292,138.349 L1.5,138.349 L1.5,141.612 L4.7732292,141.612 L4.7732292,144.252 L1.5,144.252 L1.5,145.466 C1.5,146.866 2.64917706,148.001 4.07095433,148.001 L27.9310724,148.001 C29.3498096,148.001 30.5,146.866 30.5,145.466 L30.5,144.252 L27.1750882,144.252 L27.1750882,141.612 L30.5,141.612 L30.5,138.349 L27.1750882,138.349 L27.1750882,135.643 L30.5,135.643 L30.5,132.393 L27.1750882,132.393 L27.1750882,129.752 L30.5,129.752 L30.5,129.752 L30.5,129.752 L30.5,129.752 Z M13.1660726,141.433 L13.1660726,132.035 L21.10188,136.734 L13.1660726,141.433 L13.1660726,141.433 Z M13.1660726,141.433" id="video--lp-blue" fill="#206FAC" sketch:type="MSShapeGroup"></path>
        <path d="M30.5,89.752 L30.5,88.525 C30.5,87.125 29.3498096,85.989 27.9310724,85.989 L4.07095433,85.989 C2.64917706,85.989 1.5,87.125 1.5,88.525 L1.5,89.752 L4.7732292,89.752 L4.7732292,92.393 L1.5,92.393 L1.5,95.643 L4.7732292,95.643 L4.7732292,98.349 L1.5,98.349 L1.5,101.612 L4.7732292,101.612 L4.7732292,104.252 L1.5,104.252 L1.5,105.466 C1.5,106.866 2.64917706,108.001 4.07095433,108.001 L27.9310724,108.001 C29.3498096,108.001 30.5,106.866 30.5,105.466 L30.5,104.252 L27.1750882,104.252 L27.1750882,101.612 L30.5,101.612 L30.5,98.349 L27.1750882,98.349 L27.1750882,95.643 L30.5,95.643 L30.5,92.393 L27.1750882,92.393 L27.1750882,89.752 L30.5,89.752 L30.5,89.752 L30.5,89.752 L30.5,89.752 Z M13.1660726,101.433 L13.1660726,92.035 L21.10188,96.734 L13.1660726,101.433 L13.1660726,101.433 Z M13.1660726,101.433" id="video--white" fill="#FFFFFF" sketch:type="MSShapeGroup"></path>
        <path d="M30.5,49.752 L30.5,48.525 C30.5,47.125 29.3498096,45.989 27.9310724,45.989 L4.07095433,45.989 C2.64917706,45.989 1.5,47.125 1.5,48.525 L1.5,49.752 L4.7732292,49.752 L4.7732292,52.393 L1.5,52.393 L1.5,55.643 L4.7732292,55.643 L4.7732292,58.349 L1.5,58.349 L1.5,61.612 L4.7732292,61.612 L4.7732292,64.252 L1.5,64.252 L1.5,65.466 C1.5,66.866 2.64917706,68.001 4.07095433,68.001 L27.9310724,68.001 C29.3498096,68.001 30.5,66.866 30.5,65.466 L30.5,64.252 L27.1750882,64.252 L27.1750882,61.612 L30.5,61.612 L30.5,58.349 L27.1750882,58.349 L27.1750882,55.643 L30.5,55.643 L30.5,52.393 L27.1750882,52.393 L27.1750882,49.752 L30.5,49.752 L30.5,49.752 L30.5,49.752 L30.5,49.752 Z M13.1660726,61.433 L13.1660726,52.035 L21.10188,56.734 L13.1660726,61.433 L13.1660726,61.433 Z M13.1660726,61.433" id="video--body-grey" fill="#67737B" sketch:type="MSShapeGroup"></path>
        <path d="M30.5,9.752 L30.5,8.525 C30.5,7.125 29.3498096,5.989 27.9310724,5.989 L4.07095433,5.989 C2.64917706,5.989 1.5,7.125 1.5,8.525 L1.5,9.752 L4.7732292,9.752 L4.7732292,12.393 L1.5,12.393 L1.5,15.643 L4.7732292,15.643 L4.7732292,18.349 L1.5,18.349 L1.5,21.612 L4.7732292,21.612 L4.7732292,24.252 L1.5,24.252 L1.5,25.466 C1.5,26.866 2.64917706,28.001 4.07095433,28.001 L27.9310724,28.001 C29.3498096,28.001 30.5,26.866 30.5,25.466 L30.5,24.252 L27.1750882,24.252 L27.1750882,21.612 L30.5,21.612 L30.5,18.349 L27.1750882,18.349 L27.1750882,15.643 L30.5,15.643 L30.5,12.393 L27.1750882,12.393 L27.1750882,9.752 L30.5,9.752 L30.5,9.752 L30.5,9.752 L30.5,9.752 Z M13.1660726,21.433 L13.1660726,12.035 L21.10188,16.734 L13.1660726,21.433 L13.1660726,21.433 Z M13.1660726,21.433" id="video--title-grey" fill="#3A434E" sketch:type="MSShapeGroup"></path>
    </g>
</svg>

<svg width="32" height="232" viewBox="0 0 32 232" xmlns="http://www.w3.org/2000/svg" xmlns:sketch="http://www.bohemiancoding.com/sketch/ns"><title>video</title><g sketch:type="MSPage" fill="none"><path d="M30.5 129.752v-1.227c0-1.4-1.15-2.536-2.569-2.536h-23.86c-1.422 0-2.571 1.136-2.571 2.536v1.227h3.273v2.641h-3.273v3.25h3.273v2.706h-3.273v3.263h3.273v2.64h-3.273v1.214c0 1.4 1.149 2.535 2.571 2.535h23.86c1.419 0 2.569-1.135 2.569-2.535v-1.214h-3.325v-2.64h3.325v-3.263h-3.325v-2.706h3.325v-3.25h-3.325v-2.641h3.325zm-17.334 11.681v-9.398l7.936 4.699-7.936 4.699zm0 0" fill="#206FAC" sketch:type="MSShapeGroup"/><path d="M30.5 89.752v-1.227c0-1.4-1.15-2.536-2.569-2.536h-23.86c-1.422 0-2.571 1.136-2.571 2.536v1.227h3.273v2.641h-3.273v3.25h3.273v2.706h-3.273v3.263h3.273v2.64h-3.273v1.214c0 1.4 1.149 2.535 2.571 2.535h23.86c1.419 0 2.569-1.135 2.569-2.535v-1.214h-3.325v-2.64h3.325v-3.263h-3.325v-2.706h3.325v-3.25h-3.325v-2.641h3.325zm-17.334 11.681v-9.398l7.936 4.699-7.936 4.699zm0 0" fill="#fff" sketch:type="MSShapeGroup"/><path d="M30.5 49.752v-1.227c0-1.4-1.15-2.536-2.569-2.536h-23.86c-1.422 0-2.571 1.136-2.571 2.536v1.227h3.273v2.641h-3.273v3.25h3.273v2.706h-3.273v3.263h3.273v2.64h-3.273v1.214c0 1.4 1.149 2.535 2.571 2.535h23.86c1.419 0 2.569-1.135 2.569-2.535v-1.214h-3.325v-2.64h3.325v-3.263h-3.325v-2.706h3.325v-3.25h-3.325v-2.641h3.325zm-17.334 11.681v-9.398l7.936 4.699-7.936 4.699zm0 0" fill="#67737B" sketch:type="MSShapeGroup"/><path d="M30.5 9.752v-1.227c0-1.4-1.15-2.536-2.569-2.536h-23.86c-1.422 0-2.571 1.136-2.571 2.536v1.227h3.273v2.641h-3.273v3.25h3.273v2.706h-3.273v3.263h3.273v2.64h-3.273v1.214c0 1.4 1.149 2.535 2.571 2.535h23.86c1.419 0 2.569-1.135 2.569-2.535v-1.214h-3.325v-2.64h3.325v-3.263h-3.325v-2.706h3.325v-3.25h-3.325v-2.641h3.325zm-17.334 11.681v-9.398l7.936 4.699-7.936 4.699zm0 0" fill="#3A434E" sketch:type="MSShapeGroup"/></g></svg>
